static/img/kroki/75d0df27f7f0151c0f3f1c20f9d95a26.svg

<?xml version="1.0" encoding="us-ascii" standalone="no"?><svg xmlns="http://www.w3.org/2000/svg" xmlns:xlink="http://www.w3.org/1999/xlink" contentStyleType="text/css" height="374px" preserveAspectRatio="none" style="width:378px;height:374px;" version="1.1" viewBox="0 0 378 374" width="378px" zoomAndPan="magnify"><defs/><g><!--class azure_network_public_ip_address--><g id="elem_azure_network_public_ip_address"><rect codeLine="23" fill="#3D176E" height="39.7891" id="azure_network_public_ip_address" rx="2.5" ry="2.5" style="stroke:#000D19;stroke-width:0.5;" width="321" x="10" y="328.58"/><ellipse cx="25" cy="348.4745" fill="#ADD1B2" rx="11" ry="11" style="stroke:#181818;stroke-width:1.0;"/><path d="M27.9688,354.1152 Q27.3906,354.412 26.75,354.5527 Q26.1094,354.7089 25.4063,354.7089 Q22.9063,354.7089 21.5781,353.0683 Q20.2656,351.412 20.2656,348.287 Q20.2656,345.162 21.5781,343.5058 Q22.9063,341.8495 25.4063,341.8495 Q26.1094,341.8495 26.75,342.0058 Q27.4063,342.162 27.9688,342.4589 L27.9688,345.1777 Q27.3438,344.5995 26.75,344.3339 Q26.1563,344.0527 25.5313,344.0527 Q24.1875,344.0527 23.5,345.1308 Q22.8125,346.1933 22.8125,348.287 Q22.8125,350.3808 23.5,351.4589 Q24.1875,352.5214 25.5313,352.5214 Q26.1563,352.5214 26.75,352.2558 Q27.3438,351.9745 27.9688,351.3964 L27.9688,354.1152 Z " fill="#000000"/><text fill="#D9B8FF" font-family="Helvetica" font-size="17" lengthAdjust="spacing" textLength="279" x="44" y="354.3598">azure_network_public_ip_address</text></g><!--class ip_address--><g id="elem_ip_address"><rect codeLine="26" fill="#3D176E" height="39.7891" id="ip_address" rx="2.5" ry="2.5" style="stroke:#000D19;stroke-width:0.5;" width="129" x="7" y="167.79"/><ellipse cx="22" cy="187.6845" fill="#ADD1B2" rx="11" ry="11" style="stroke:#181818;stroke-width:1.0;"/><path d="M24.9688,193.3252 Q24.3906,193.622 23.75,193.7627 Q23.1094,193.9189 22.4063,193.9189 Q19.9063,193.9189 18.5781,192.2783 Q17.2656,190.622 17.2656,187.497 Q17.2656,184.372 18.5781,182.7158 Q19.9063,181.0595 22.4063,181.0595 Q23.1094,181.0595 23.75,181.2158 Q24.4063,181.372 24.9688,181.6689 L24.9688,184.3877 Q24.3438,183.8095 23.75,183.5439 Q23.1563,183.2627 22.5313,183.2627 Q21.1875,183.2627 20.5,184.3408 Q19.8125,185.4033 19.8125,187.497 Q19.8125,189.5908 20.5,190.6689 Q21.1875,191.7314 22.5313,191.7314 Q23.1563,191.7314 23.75,191.4658 Q24.3438,191.1845 24.9688,190.6064 L24.9688,193.3252 Z " fill="#000000"/><text fill="#D9B8FF" font-family="Helvetica" font-size="17" lengthAdjust="spacing" textLength="87" x="41" y="193.5698">ip_address</text></g><!--class microsoft_resource--><g id="elem_microsoft_resource"><rect codeLine="29" fill="#3D176E" height="39.7891" id="microsoft_resource" rx="2.5" ry="2.5" style="stroke:#000D19;stroke-width:0.5;" width="200" x="171.5" y="167.79"/><ellipse cx="186.5" cy="187.6845" fill="#ADD1B2" rx="11" ry="11" style="stroke:#181818;stroke-width:1.0;"/><path d="M189.4688,193.3252 Q188.8906,193.622 188.25,193.7627 Q187.6094,193.9189 186.9063,193.9189 Q184.4063,193.9189 183.0781,192.2783 Q181.7656,190.622 181.7656,187.497 Q181.7656,184.372 183.0781,182.7158 Q184.4063,181.0595 186.9063,181.0595 Q187.6094,181.0595 188.25,181.2158 Q188.9063,181.372 189.4688,181.6689 L189.4688,184.3877 Q188.8438,183.8095 188.25,183.5439 Q187.6563,183.2627 187.0313,183.2627 Q185.6875,183.2627 185,184.3408 Q184.3125,185.4033 184.3125,187.497 Q184.3125,189.5908 185,190.6689 Q185.6875,191.7314 187.0313,191.7314 Q187.6563,191.7314 188.25,191.4658 Q188.8438,191.1845 189.4688,190.6064 L189.4688,193.3252 Z " fill="#000000"/><text fill="#D9B8FF" font-family="Helvetica" font-size="17" lengthAdjust="spacing" textLength="158" x="205.5" y="193.5698">microsoft_resource</text></g><!--class resource--><g id="elem_resource"><rect codeLine="32" fill="#3D176E" height="39.7891" id="resource" rx="2.5" ry="2.5" style="stroke:#000D19;stroke-width:0.5;" width="113" x="114" y="7"/><ellipse cx="129" cy="26.8945" fill="#ADD1B2" rx="11" ry="11" style="stroke:#181818;stroke-width:1.0;"/><path d="M131.9688,32.5352 Q131.3906,32.832 130.75,32.9727 Q130.1094,33.1289 129.4063,33.1289 Q126.9063,33.1289 125.5781,31.4883 Q124.2656,29.832 124.2656,26.707 Q124.2656,23.582 125.5781,21.9258 Q126.9063,20.2695 129.4063,20.2695 Q130.1094,20.2695 130.75,20.4258 Q131.4063,20.582 131.9688,20.8789 L131.9688,23.5977 Q131.3438,23.0195 130.75,22.7539 Q130.1563,22.4727 129.5313,22.4727 Q128.1875,22.4727 127.5,23.5508 Q126.8125,24.6133 126.8125,26.707 Q126.8125,28.8008 127.5,29.8789 Q128.1875,30.9414 129.5313,30.9414 Q130.1563,30.9414 130.75,30.6758 Q131.3438,30.3945 131.9688,29.8164 L131.9688,32.5352 Z " fill="#000000"/><text fill="#D9B8FF" font-family="Helvetica" font-size="17" lengthAdjust="spacing" textLength="71" x="148" y="32.7798">resource</text></g><!--reverse link ip_address to azure_network_public_ip_address--><g id="link_ip_address_azure_network_public_ip_address"><path codeLine="35" d="M92.9638,223.1141 C111.9938,253.6341 139.46,297.69 158.52,328.25 " fill="none" id="ip_address-backto-azure_network_public_ip_address" style="stroke:#FFAF37;stroke-width:2.0;"/><polygon fill="none" points="83.44,207.84,87.8724,226.2887,98.0551,219.9395,83.44,207.84" style="stroke:#FFAF37;stroke-width:2.0;"/></g><!--reverse link microsoft_resource to azure_network_public_ip_address--><g id="link_microsoft_resource_azure_network_public_ip_address"><path codeLine="36" d="M249.6569,223.0263 C230.2369,253.5463 202.17,297.69 182.73,328.25 " fill="none" id="microsoft_resource-backto-azure_network_public_ip_address" style="stroke:#FFAF37;stroke-width:2.0;"/><polygon fill="none" points="259.32,207.84,244.5948,219.8053,254.719,226.2474,259.32,207.84" style="stroke:#FFAF37;stroke-width:2.0;"/></g><!--reverse link resource to ip_address--><g id="link_resource_ip_address"><path codeLine="37" d="M149.0362,62.3241 C130.0062,92.8441 102.54,136.9 83.48,167.46 " fill="none" id="resource-backto-ip_address" style="stroke:#FFAF37;stroke-width:2.0;"/><polygon fill="none" points="158.56,47.05,143.9449,59.1495,154.1276,65.4987,158.56,47.05" style="stroke:#FFAF37;stroke-width:2.0;"/></g><!--reverse link resource to microsoft_resource--><g id="link_resource_microsoft_resource"><path codeLine="38" d="M192.3431,62.2363 C211.7631,92.7563 239.83,136.9 259.27,167.46 " fill="none" id="resource-backto-microsoft_resource" style="stroke:#FFAF37;stroke-width:2.0;"/><polygon fill="none" points="182.68,47.05,187.281,65.4574,197.4052,59.0153,182.68,47.05" style="stroke:#FFAF37;stroke-width:2.0;"/></g><!--SRC=[ZP91Jy9048Nl_HMRS2O1YHOIBqXYz4ACU6-skxEmQRlJp4vjGFtlKa6pj0MyllVjl3UJtLWD0egIjwA08WNoaS-iAoN9Gio9i5vWZYG6naWpYTlc8pg-2Ynb0U89ydTWgsIRUDjObJdmNjm4reDKsPgmSlemdaawlxV0SK0jSkdzd9biMZ44PVGidHhJ9jj31nCzZk-WWo5fe2Co6etqUDP6haPTtFkFMDaTY75uj2KoT6fs8dweYoqR8YZPMVJNFzlnHMfjtLhS1jhheHCve1DzjP4QwuOsClTXZ6SWGDwMiEXi1REfDd4l_7mEZbHpEY5t5K7YW6kaB2chDBSgiMMoxqpDJ_g8egyZsgyMLX5wD9pi7Qn8GUYUQi64-y_XS7WjFUeP_h-7BVoyqqs8lW40]--></g></svg>

<svg xmlns="http://www.w3.org/2000/svg" width="378" height="374" viewBox="0 0 378 374"><rect width="321" height="39.789" x="10" y="328.58" fill="#3D176E" rx="2.5" ry="2.5" style="stroke:#000d19;stroke-width:.5"/><circle cx="25" cy="348.474" r="11" fill="#ADD1B2" style="stroke:#181818;stroke-width:1"/><path d="M27.969 354.115q-.578.297-1.219.438-.64.156-1.344.156-2.5 0-3.828-1.64-1.312-1.657-1.312-4.782t1.312-4.781q1.328-1.656 3.828-1.656.703 0 1.344.156.656.156 1.219.453v2.719q-.625-.579-1.219-.844-.594-.281-1.219-.281-1.343 0-2.031 1.078-.687 1.062-.687 3.156t.687 3.172q.688 1.062 2.031 1.062.625 0 1.219-.265.594-.281 1.219-.86z"/><text x="44" y="354.36" fill="#D9B8FF" font-family="Helvetica" font-size="17" textLength="279">azure_network_public_ip_address</text><rect width="129" height="39.789" x="7" y="167.79" fill="#3D176E" rx="2.5" ry="2.5" style="stroke:#000d19;stroke-width:.5"/><circle cx="22" cy="187.685" r="11" fill="#ADD1B2" style="stroke:#181818;stroke-width:1"/><path d="M24.969 193.325q-.578.297-1.219.438-.64.156-1.344.156-2.5 0-3.828-1.64-1.312-1.657-1.312-4.782t1.312-4.781q1.328-1.656 3.828-1.656.703 0 1.344.156.656.156 1.219.453v2.719q-.625-.578-1.219-.844-.594-.281-1.219-.281-1.343 0-2.031 1.078-.687 1.062-.687 3.156t.687 3.172q.688 1.062 2.031 1.062.625 0 1.219-.265.594-.281 1.219-.86z"/><text x="41" y="193.57" fill="#D9B8FF" font-family="Helvetica" font-size="17" textLength="87">ip_address</text><rect width="200" height="39.789" x="171.5" y="167.79" fill="#3D176E" rx="2.5" ry="2.5" style="stroke:#000d19;stroke-width:.5"/><circle cx="186.5" cy="187.685" r="11" fill="#ADD1B2" style="stroke:#181818;stroke-width:1"/><path d="M189.469 193.325q-.578.297-1.219.438-.64.156-1.344.156-2.5 0-3.828-1.64-1.312-1.657-1.312-4.782t1.312-4.781q1.328-1.656 3.828-1.656.703 0 1.344.156.656.156 1.219.453v2.719q-.625-.578-1.219-.844-.594-.281-1.219-.281-1.344 0-2.031 1.078-.687 1.062-.687 3.156t.687 3.172q.688 1.062 2.031 1.062.625 0 1.219-.265.594-.281 1.219-.86z"/><text x="205.5" y="193.57" fill="#D9B8FF" font-family="Helvetica" font-size="17" textLength="158">microsoft_resource</text><rect width="113" height="39.789" x="114" y="7" fill="#3D176E" rx="2.5" ry="2.5" style="stroke:#000d19;stroke-width:.5"/><circle cx="129" cy="26.895" r="11" fill="#ADD1B2" style="stroke:#181818;stroke-width:1"/><path d="M131.969 32.535q-.578.297-1.219.438-.64.156-1.344.156-2.5 0-3.828-1.64-1.312-1.657-1.312-4.782t1.312-4.781q1.328-1.656 3.828-1.656.703 0 1.344.156.656.156 1.219.453v2.719q-.625-.578-1.219-.844-.594-.281-1.219-.281-1.344 0-2.031 1.078-.687 1.062-.687 3.156t.687 3.172q.688 1.062 2.031 1.062.625 0 1.219-.265.594-.281 1.219-.86z"/><text x="148" y="32.78" fill="#D9B8FF" font-family="Helvetica" font-size="17" textLength="71">resource</text><path fill="none" d="M92.964 223.114c19.03 30.52 46.496 74.576 65.556 105.136M83.44 207.84l4.432 18.449 10.183-6.35z" style="stroke:#ffaf37;stroke-width:2"/><g fill="none"><path d="M249.657 223.026c-19.42 30.52-47.487 74.664-66.927 105.224" style="stroke:#ffaf37;stroke-width:2"/><path d="m259.32 207.84-14.725 11.965 10.124 6.442z" style="stroke:#ffaf37;stroke-width:2"/></g><g fill="none"><path d="M149.036 62.324C130.006 92.844 102.54 136.9 83.48 167.46" style="stroke:#ffaf37;stroke-width:2"/><path d="m158.56 47.05-14.615 12.1 10.183 6.349z" style="stroke:#ffaf37;stroke-width:2"/></g><g fill="none"><path d="M192.343 62.236c19.42 30.52 47.487 74.664 66.927 105.224" style="stroke:#ffaf37;stroke-width:2"/><path d="m182.68 47.05 4.601 18.407 10.124-6.442z" style="stroke:#ffaf37;stroke-width:2"/></g></svg>
